lib/healthicons/icons/outline/places/ministry_of_health.svg

<svg fill="none" height="48" viewBox="0 0 48 48" width="48" xmlns="http://www.w3.org/2000/svg"><g fill="#333"><path d="m25 16v-2h2v-2h-2v-2h-2v2h-2v2h2v2z"/><path clip-rule="evenodd" d="m24.6248 5.21913c-.3653-.29217-.8842-.29217-1.2494 0l-14.72612 11.78087h-1.64928c-.55228 0-1 .4477-1 1v4c0 .5523.44772 1 1 1h1v10h-1c-.55228 0-1 .4477-1 1v3h-1c-.55228 0-1 .4477-1 1v4c0 .5523.44772 1 1 1h38c.5523 0 1-.4477 1-1v-4c0-.5523-.4477-1-1-1h-1v-3c0-.5523-.4477-1-1-1h-1v-10h1c.5523 0 1-.4477 1-1v-4c0-.5523-.4477-1-1-1h-1.6492zm11.5245 11.78087-12.1492-9.71938-12.1493 9.71938zm-28.1493 2v2h32v-2zm30 4h-2v10h2zm-4 10v-10h-20v10h1c.5523 0 1 .4477 1 1v3h4v-8c0-2.2091 1.7909-4 4-4s4 1.7909 4 4v8h4v-3c0-.5523.4477-1 1-1zm-12-4v8h4v-8c0-1.1046-.8954-2-2-2s-2 .8954-2 2zm20 10v2h-36v-2zm-8-4v2h6v-2zm-24-2v-10h2v10zm-2 2h6v2h-6z" fill-rule="evenodd"/></g></svg>

<svg width="48" height="48" viewBox="0 0 48 48" fill="none" xmlns="http://www.w3.org/2000/svg">
<path d="M25 16V14H27V12H25V10H23V12H21V14H23V16H25Z" fill="#333333"/>
<path fill-rule="evenodd" clip-rule="evenodd" d="M24.6248 5.21913C24.2595 4.92696 23.7406 4.92696 23.3754 5.21913L8.64928 17H7C6.44772 17 6 17.4477 6 18V22C6 22.5523 6.44772 23 7 23H8V33H7C6.44772 33 6 33.4477 6 34V37H5C4.44772 37 4 37.4477 4 38V42C4 42.5523 4.44772 43 5 43H43C43.5523 43 44 42.5523 44 42V38C44 37.4477 43.5523 37 43 37H42V34C42 33.4477 41.5523 33 41 33H40V23H41C41.5523 23 42 22.5523 42 22V18C42 17.4477 41.5523 17 41 17H39.3508L24.6248 5.21913ZM36.1493 17L24.0001 7.28062L11.8508 17H36.1493ZM8 19V21H40V19H8ZM38 23H36V33H38V23ZM34 33V23H14V33H15C15.5523 33 16 33.4477 16 34V37H20V29C20 26.7909 21.7909 25 24 25C26.2091 25 28 26.7909 28 29V37H32V34C32 33.4477 32.4477 33 33 33H34ZM22 29V37H26V29C26 27.8954 25.1046 27 24 27C22.8954 27 22 27.8954 22 29ZM42 39V41H6V39H42ZM34 35V37H40V35H34ZM10 33V23H12V33H10ZM8 35H14V37H8V35Z" fill="#333333"/>
</svg>
